aliba_games/img/icon-skrill.svg

<svg width="41" height="14" viewBox="0 0 41 14" fill="none" xmlns="http://www.w3.org/2000/svg">
<g clip-path="url(#clip0_157_2261)">
<path fill-rule="evenodd" clip-rule="evenodd" d="M29.4932 3.43773C30.4159 3.43773 31.1639 2.69017 31.1639 1.76832C31.1639 0.845939 30.4159 0.0976562 29.4932 0.0976562C28.5715 0.0976562 27.824 0.845939 27.824 1.76832C27.824 2.69017 28.5715 3.43773 29.4932 3.43773ZM16.6981 4.3393C16.6227 4.52866 16.0801 6.0613 14.7679 7.64976V0.857784L11.2715 1.54881V13.86H14.7679V10.0545C15.7806 11.5733 16.2806 13.86 16.2806 13.86H20.4686C20.0543 12.1378 18.2422 8.96235 18.2422 8.96235C19.8686 6.9004 20.5829 4.7033 20.6965 4.3393H16.6981ZM25.89 4.21078C22.7583 4.3113 21.1686 5.71632 21.1686 8.50932V13.86H24.5851V9.49668C24.5851 7.82422 24.8041 7.10735 26.7887 7.03896V4.25978C26.4547 4.18889 25.89 4.21078 25.89 4.21078ZM5.40763 5.69496C4.97937 5.66678 3.98789 5.60271 3.98789 4.71012C3.98789 3.63302 5.41535 3.63302 5.95076 3.63302C6.89217 3.63302 8.11142 3.91122 8.98212 4.17166C8.98212 4.17166 9.46781 4.34289 9.88117 4.51825L9.91958 4.52866V1.57878L9.86681 1.56317C8.83924 1.20366 7.6444 0.857784 5.42917 0.857784C1.60968 0.857784 0.256348 3.08289 0.256348 4.98904C0.256348 6.08786 0.727322 8.67391 5.1016 8.97222C5.47242 8.99502 6.45655 9.05173 6.45655 9.97412C6.45655 10.7357 5.65084 11.1848 4.29571 11.1848C2.81063 11.1848 1.37007 10.806 0.495066 10.4469V13.4851C1.80496 13.8284 3.2816 14 5.01222 14C8.74681 14 10.4195 11.8948 10.4195 9.80827C10.4195 7.44245 8.54776 5.90532 5.40763 5.69496ZM27.7996 13.86H31.1884V4.35007H27.7996V13.86ZM37.5696 1.46409V13.86H40.959V0.857784L37.5696 1.46409ZM32.624 1.46409L36.0102 0.857784V13.86H32.624V1.46409Z" fill="white"/>
</g>
<defs>
<clipPath id="clip0_157_2261">
<rect width="40.7436" height="14" fill="white" transform="translate(0.256348)"/>
</clipPath>
</defs>
</svg>

<svg width="41" height="14" fill="none" xmlns="http://www.w3.org/2000/svg"><g clip-path="url(#clip0_157_2261)"><path fill-rule="evenodd" clip-rule="evenodd" d="M29.493 3.438a1.67 1.67 0 1 0 .001-3.34 1.67 1.67 0 0 0 0 3.34zm-12.795.901c-.075.19-.618 1.722-1.93 3.31V.859l-3.497.69V13.86h3.497v-3.805c1.013 1.518 1.513 3.805 1.513 3.805h4.188c-.415-1.722-2.227-4.898-2.227-4.898a15.34 15.34 0 0 0 2.454-4.623h-3.998zm9.192-.128c-3.132.1-4.721 1.505-4.721 4.298v5.351h3.416V9.497c0-1.673.22-2.39 2.204-2.458v-2.78c-.334-.07-.899-.048-.899-.048zM5.408 5.695c-.429-.028-1.42-.092-1.42-.985 0-1.077 1.427-1.077 1.963-1.077.941 0 2.16.278 3.031.539 0 0 .486.17.9.346l.038.01v-2.95l-.053-.015C8.839 1.203 7.644.858 5.429.858 1.61.858.256 3.083.256 4.989c0 1.099.471 3.685 4.846 3.983.37.023 1.355.08 1.355 1.002 0 .762-.806 1.21-2.161 1.21-1.485 0-2.926-.378-3.8-.737v3.038c1.309.343 2.786.515 4.516.515 3.735 0 5.407-2.105 5.407-4.192 0-2.366-1.871-3.903-5.011-4.113zM27.8 13.86h3.388V4.35H27.8v9.51zm9.77-12.396V13.86h3.389V.858l-3.39.606zm-4.946 0L36.01.858V13.86h-3.386V1.464z" fill="#fff"/></g><defs><clipPath id="clip0_157_2261"><path fill="#fff" transform="translate(.256)" d="M0 0h40.744v14H0z"/></clipPath></defs></svg>
